X:1
T:Title
%%score { 1 | 2 }
L:1/8
M:6/8
K:Ab
V:1 treble nm="Grand Piano"
V:2 bass 
V:1
 z3 z2[Q:1/4=84] [CE] | [CA]2 [CA] [CA]2 [EG] | [EG]2 F F2 F | [CE]2 [CE] [EA]2 [EA] | %4
[M:5/8] B-B- B3 |[M:1/8] E |[M:3/4] [CA]2 [CA] [CA]2 [EG] | [EG]2 F F2 F | E2 A B2 A | %9
[M:5/8] [CA]-[CA]- [CA]3 |[M:1/8] A |[M:3/4] B2 c d2 [EG] | [EA]2 [EB] [Ec]2 [EA] | %13
 [FA]2 [FA] [=DB]2 [Dc] |[M:5/8] [EB]-[EB]- [EB]3 |[M:1/8] [DE] |[M:3/4] [CA]2 [DB] [Ec]2 [Ge] | %17
 [Fe]2 [Fd] F2 B | A2 E c2 B |[M:5/8] [CA]-[CA]- [CA]3 |[M:1/8] [CA] |[M:3/4] B2 c d2 G | %22
 [CA]3 [CE]2 [EA] | B2 =A B2 c | B4- BE | [CA]2 [DB] [Ec]2 [_Ge] | [Fe]2 [Fd] [DF]2 [Fc]/[FB]/ | %27
[M:7/8] A/E/- E2 c3 B |[M:5/8] [CA]-[CA]- [CA]3 |] %29
V:2
 z3 z2 [A,,A,] | [A,,E,]2 [A,,E,] [A,,E,]2 [C,A,] | [D,A,]2 [D,A,D] [D,A,D]2 [D,A,D] | %3
 [A,,A,]2 [A,,A,] [C,A,]2 [C,A,] |[M:5/8] [E,G,E]-[E,G,E]- [E,G,E]3 |[M:1/8] [E,D] | %6
[M:3/4] [A,,E,]2 [A,,E,] [A,,E,]2 [C,A,] | [D,A,]2 [D,A,D] [D,A,D]2 [D,A,D] | %8
 [E,A,C]2 [E,A,C] [E,G,D]2 [E,C] |[M:5/8] [A,,E,]-[A,,E,]- [A,,E,]3 |[M:1/8] [A,C] | %11
[M:3/4] [E,G,E]2 [E,A,E] [E,B,E]2 [D,B,] | [C,A,]2 [B,,G,] [A,,A,]2 [C,A,] | %13
 [D,A,]2 [D,A,] [B,,A,]2 [B,,A,] |[M:5/8] [E,G,]-[E,G,]- [E,G,]3 |[M:1/8] [E,G,] | %16
[M:3/4] [A,,A,]2 [A,,E,] [A,,E,]2 [C,A,] | [D,A,]2 [D,A,] [D,A,D]2 [D,A,D] | %18
 [E,A,C]2 [E,A,C] [E,A,E]2 [E,G,D] |[M:5/8] [A,,A,]-[A,,A,]- [A,,A,]3 |[M:1/8] [A,,A,] | %21
[M:3/4] [E,G,E]2 [E,A,E] [E,B,E]2 [E,B,D] | [A,,A,]3 [A,,A,]2 [C,A,] | %23
 [E,G,E]2 [E,_G,E] [E,=G,E]2 [E,A,E] | [E,G,E]4- [E,G,E][E,G,D] | %25
 [A,,A,]2 [A,,A,] [A,,A,]2 [C,A,] | [D,A,]2 [D,A,] [D,A,]2 [D,D]/[D,D]/ | %27
[M:7/8] [E,CE]/[E,A,C]/- [E,A,C]2 [E,A,E]3 [E,G,D] |[M:5/8] [A,,A,]-[A,,A,]- [A,,A,]3 |] %29

